X:129
T:Moss Murphy's
T:John Joe Hartnett's
T:John Joe Harnett's
R:slide
Z:id:hn-slide-129
M:6/8
L:1/8
K:Ador
ABA e2d | d2B G3 | ABA e2d | def g2A |
ABA e2d | d2B G2g | efg e2d |1 B2A EFG :|2 B2A ABd ||
|: e2d e2f | g2f e2d | Bcd e2f | g2f g2a |
bag agf | g2f e2d | efg e2d |1 B2A ABd :|2 B2A EFG ||

